!!!COM: Anon.
!!!OTL: Tinha en vinte anos de idade
!!!OTL: Romanceiro Folclorico do Brasil
!!!CNT: Brasil
!!!OCY: Brasil
!!!ODT: <1971///
!!!PSR: Irmaos Vitale
!!!PSP: Sao Paulo, Brasil
!!!PDT: 1950///
!!!PPE: Rossini Tavares de Lima
!!!PPG: page 69
!! Romance: Donzela
!! Place: Santos, Sao Paulo, Brasil
**kern
*clefG2
*k[b-e-a-]
*M3/4
*MM100
8b-
8a-
=
4g
8g
8g
8g
8f
=
4b-
4b-
8g
8a-
=
4a-
4f
8f
8g
=
4f
4e-
8g
8g
=
4cc
4g
8e-
8e-
=
4d
4c
8d-
8e-
=
4f
8g
8g
8d
8d
=
2c
==
*-
